packages/icons/src/components/Logo/assets/light/open-telemetry.svg

<svg xmlns="http://www.w3.org/2000/svg" width="20" height="20" fill="none" viewBox="0 0 20 20">
    <path fill="#f5a800" d="M10.63 10.97c-.81.81-.81 1.89 0 2.7s1.89.81 2.7 0 .81-1.89 0-2.7-1.89-.81-2.7 0m2.49 2.28c-.1.1-.21.18-.33.23s-.24.08-.36.08-.24-.03-.36-.08-.23-.13-.33-.23-.18-.21-.23-.33a.9.9 0 0 1-.08-.36c0-.12.03-.24.08-.36s.13-.23.23-.33.21-.18.33-.23.24-.08.36-.08.24.03.36.08.23.13.33.23c.39.39.39 1.54 0 1.93ZM13.79.58 12.5 1.87c-.12.13-.19.29-.19.46s.07.33.19.46l5.25 5.25c.13.13.29.2.46.2s.33-.07.46-.2l1.29-1.29c.22-.22.22-.58 0-.8L14.21.2a.64.64 0 0 0-.45-.19.55.55 0 0 0-.45.17l-.81.81a.636.636 0 0 0 0 .91zM4.51 17.02c.1-.1.15-.23.15-.37s-.05-.27-.15-.37l-.63-.63c-.1-.1-.23-.15-.37-.15s-.27.05-.37.15l-1.48 1.48-.39.39c-.17.17-.41.17-.58 0a.504.504 0 0 1 0-.67l2.13-2.13a.25.25 0 0 1 .18-.08c.07 0 .13.03.18.08.17.17.17.5 0 .67l-.39.39z"/>
    <path fill="#425cc7" d="M11.33 4.27 8.5 7.1c-.27.27-.27.71 0 .98l1.71 1.71c1.21-.9 2.78-.89 3.98 0l1.38-1.38c.27-.27.27-.71 0-.98zm-3.23 6.3L7.07 9.54a.694.694 0 0 0-.98 0l-3.37 3.37a.62.62 0 0 0-.2.43c0 .16.08.31.2.43l2.13 2.13c.12.12.27.2.43.2s.31-.08.43-.2l2.39-2.39c-.51-1.01-.5-2.18 0-2.94"/>
</svg>

<svg width="20" height="20" viewBox="0 0 20 20" fill="none" xmlns="http://www.w3.org/2000/svg">
  <path d="M10.63 10.97C9.82 11.78 9.82 12.86 10.63 13.67C11.44 14.48 12.52 14.48 13.33 13.67C14.14 12.86 14.14 11.78 13.33 10.97C12.52 10.16 11.44 10.16 10.63 10.97ZM13.12 13.25C13.02 13.35 12.91 13.43 12.79 13.48C12.67 13.53 12.55 13.56 12.43 13.56C12.31 13.56 12.19 13.53 12.07 13.48C11.95 13.43 11.84 13.35 11.74 13.25C11.64 13.15 11.56 13.04 11.51 12.92C11.46 12.8 11.43 12.68 11.43 12.56C11.43 12.44 11.46 12.32 11.51 12.2C11.56 12.08 11.64 11.97 11.74 11.87C11.84 11.77 11.95 11.69 12.07 11.64C12.19 11.59 12.31 11.56 12.43 11.56C12.55 11.56 12.67 11.59 12.79 11.64C12.91 11.69 13.02 11.77 13.12 11.87C13.51 12.26 13.51 13.41 13.12 13.8ZM13.79 0.58L12.5 1.87C12.38 2.0 12.31 2.16 12.31 2.33C12.31 2.5 12.38 2.66 12.5 2.79L17.75 8.04C17.88 8.17 18.04 8.24 18.21 8.24C18.38 8.24 18.54 8.17 18.67 8.04L19.96 6.75C20.18 6.53 20.18 6.17 19.96 5.95L14.21 0.2C14.09 0.08 13.93 0.01 13.76 0.01C13.59 -0.01 13.43 0.06 13.31 0.18L12.5 0.99C12.38 1.11 12.31 1.27 12.31 1.44C12.31 1.61 12.38 1.77 12.5 1.9L13.79 0.58ZM4.51 17.02C4.61 16.92 4.66 16.79 4.66 16.65C4.66 16.51 4.61 16.38 4.51 16.28L3.88 15.65C3.78 15.55 3.65 15.5 3.51 15.5C3.37 15.5 3.24 15.55 3.14 15.65L1.66 17.13L1.66 17.13L1.27 17.52C1.1 17.69 0.86 17.69 0.69 17.52C0.52 17.35 0.52 17.02 0.69 16.85L2.82 14.72C2.87 14.67 2.93 14.64 3 14.64C3.07 14.64 3.13 14.67 3.18 14.72C3.35 14.89 3.35 15.22 3.18 15.39L2.79 15.78L2.79 15.78L4.51 17.02Z" fill="#F5A800"/>
  <path d="M11.33 4.27L8.5 7.1C8.23 7.37 8.23 7.81 8.5 8.08L10.21 9.79C11.42 8.89 12.99 8.9 14.19 9.79L15.57 8.41C15.84 8.14 15.84 7.7 15.57 7.43L11.33 4.27ZM8.1 10.57L7.07 9.54C6.8 9.27 6.36 9.27 6.09 9.54L2.72 12.91C2.6 13.03 2.52 13.18 2.52 13.34C2.52 13.5 2.6 13.65 2.72 13.77L4.85 15.9C4.97 16.02 5.12 16.1 5.28 16.1C5.44 16.1 5.59 16.02 5.71 15.9L8.1 13.51C7.59 12.5 7.6 11.33 8.1 10.57Z" fill="#425CC7"/>
</svg>
